X:7
T:Pollonesse 1832-07
R:Slängpolska
O:Södermanland
B:Notbok 1832 från Sörmlands museum 
N:[[http://www.sormlandsmusikarkiv.se/noter/1832/1832.html]]
Z:Jonas Brunskog
M:3/4
L:1/8
Q:1/4=100
K:D
A|:AF/2A/2d2d/2c/2B/2c/2| df fe/2d/2 ed|df fa ad'|
d'a ag gf|g/2f/2e/2f/2 b/2g/2e/2g/2 a/2f/2d/2f/2|[1g/2e/2c/2e/2 dc BA:|[2g/2e/2c/2e/2 ed df|]
|:e3/2d/2 d/2c/2e/2d/2 AG|G/2F/2E/2F/2 Adfd|BA ge bg|[1ed d/2c/2e/2c/2 Af:|[2 g/2e/2c/2e/2d4|]

